libs/icons/src/svg/arrow-left.svg

<svg width="16" height="16" viewBox="0 0 16 16" fill="none" xmlns="http://www.w3.org/2000/svg">
<path d="M5.51669 2.86665L0.85002 7.53332C0.783353 7.59999 0.716687 7.66665 0.716687 7.73332C0.65002 7.93332 0.65002 8.06665 0.716687 8.26665C0.716687 8.33332 0.783353 8.39999 0.85002 8.46665L5.51669 13.1333C5.78335 13.4 6.18335 13.4 6.45002 13.1333C6.71669 12.8667 6.71669 12.4667 6.45002 12.2L2.91669 8.66665L14.65 8.66665C15.05 8.66665 15.3167 8.39999 15.3167 7.99999C15.3167 7.59999 15.05 7.33332 14.65 7.33332L2.91669 7.33332L6.45002 3.79999C6.58335 3.66665 6.65002 3.53332 6.65002 3.33332C6.65002 3.13332 6.58335 2.99999 6.45002 2.86665C6.18335 2.59999 5.78335 2.59999 5.51669 2.86665Z" fill="#202327"/>
</svg>

<svg xmlns="http://www.w3.org/2000/svg" viewBox="0 0 16 16" class="sageicon"><path d="M5.517 2.867.85 7.533c-.067.067-.133.134-.133.2a.736.736 0 0 0 0 .534c0 .066.066.133.133.2l4.667 4.666a.644.644 0 0 0 .933 0 .644.644 0 0 0 0-.933L2.917 8.667H14.65c.4 0 .667-.267.667-.667s-.267-.667-.667-.667H2.917L6.45 3.8a.605.605 0 0 0 .2-.467c0-.2-.067-.333-.2-.466a.644.644 0 0 0-.933 0Z"/></svg>
